X:22
T:Croghan a Venee  
B:CGI.014
F:file ID jcgi/22croghan
Z:bill@capeirish.com
N:Title = ?
Q:80
L:1/8
M:3/4
K:Dm 
"plaintive - with expression"
A2|d2 d>efd|e2aza>g|f2d zd2|c2AzA2|
"5"d2 d>efd|e2a-a2g|g>f d2d2|d4 :|
e2|"9"f>ef agf|e2c zA2|B>AB dcB|A2FzF2|
"13"f>ef agf|e2c z A2|BAG FED|Hd4 A2|
P:repeat A part
d2 d>efd|e2aza>g|f2d zd2|c2AzA2|
d2 d>efd|e2a-a2g|g>f d2d2|Hd4 |]

